led-on.svg

<svg fill="currentColor" viewBox="0 0 24 24"><path d="M11 0v4h2V0zm7.3 2.29-3.06 3 1.4 1.42 3.06-3zm-12.59 0L4.29 3.71l3 3 1.42-1.42zM12 6a4 4 0 0 0-4 4v6H6v2h3v5h2v-5h2v5h2v-5h3v-2h-2v-6a4 4 0 0 0-4-4M2 9v2h4V9zm16 0v2h4V9z"/></svg>

<svg  viewBox="0 0 24 24" fill="currentColor"><path  d="M11,0V4H13V0H11M18.3,2.29L15.24,5.29L16.64,6.71L19.7,3.71L18.3,2.29M5.71,2.29L4.29,3.71L7.29,6.71L8.71,5.29L5.71,2.29M12,6A4,4 0 0,0 8,10V16H6V18H9V23H11V18H13V23H15V18H18V16H16V10A4,4 0 0,0 12,6M2,9V11H6V9H2M18,9V11H22V9H18Z"/></svg>
